X: 9
T: President Garfield's
Z: Edgar Bolton
S: https://thesession.org/tunes/419#setting48857
R: hornpipe
M: 4/4
L: 1/8
K: Gmaj
|:BA|"G"GDB,D GDB,D|"G"GFGA BABc|"D"dAFA dAFA|"D"d^cde "D7"d=cBA|
"G"GDB,D GDB,D|"G"GFGA BABc|"D7"defe "D"dcBA|"G"G2 GF G2:|
|:gf|"C"ecGE CEGe|"G"dBGD B,DGd|"D7"cded cAFA|"G"GABc dggf|
"C"ecGE CEGe|"G"dBGD B,DGd|"D7"defe "D"dcBA|"G"G2 GF G2:|

%-------------------- TUNE SEPARATOR --------------------%

